assets/build/img/remove-option.svg

<svg width="24" height="24" viewBox="0 0 24 24" fill="none" xmlns="http://www.w3.org/2000/svg">
	<circle cx="12" cy="12" r="12" fill="#1D1D1D"/>
	<path d="M6.91227 15.6988L10.416 12.195L7.09765 8.87665L8.65488 7.31943L11.9732 10.6378L15.477 7.13404L17.0898 8.74688L13.5861 12.2506L16.9045 15.569L15.3472 17.1262L12.0289 13.8079L8.52511 17.3116L6.91227 15.6988Z" fill="white"/>
</svg>

<svg width="24" height="24" fill="none" xmlns="http://www.w3.org/2000/svg"><circle cx="12" cy="12" r="12" fill="#1D1D1D"/><path d="M6.912 15.699l3.504-3.504-3.318-3.318 1.557-1.558 3.318 3.319 3.504-3.504 1.613 1.613-3.504 3.504 3.318 3.318-1.557 1.557-3.318-3.318-3.504 3.504-1.613-1.613z" fill="#fff"/></svg>
